public/img/filter/keto.svg

<svg width="100" height="100" viewBox="0 0 100 100" fill="none" xmlns="http://www.w3.org/2000/svg">
<rect x="1" y="1" width="98" height="98" rx="14" stroke="#234cad" stroke-width="2"/>
<path d="M38.3334 29.5139L38.0397 29.0684C37.3629 28.0432 36.5175 27.1399 35.5394 26.3967C37.317 26.3242 39.061 25.889 40.6643 25.1179C40.8735 25.0175 41.0343 24.8381 41.1113 24.6192C41.1882 24.4003 41.1751 24.1597 41.0747 23.9505C39.6657 21.023 37.2225 18.7211 34.2164 17.4889C31.2102 16.2567 27.8543 16.1815 24.796 17.2779C24.9095 16.7812 25.0489 16.2626 25.2188 15.7224L23.55 15.1969C21.872 20.528 22.8231 24.1164 23.4512 25.6534C21.3041 26.904 19.6491 28.8511 18.7605 31.1716C17.872 33.4921 17.8033 36.0466 18.5659 38.4114L18.7297 38.9194C19.6735 41.7983 20.0581 44.8311 19.863 47.8544C19.6886 50.5977 20.2338 53.339 21.4445 55.8069C22.6552 58.2747 24.4895 60.3836 26.7657 61.9247C29.042 63.4658 31.6813 64.3856 34.4223 64.5932C37.1633 64.8007 39.911 64.2888 42.3933 63.1081L42.5039 63.055C44.9512 61.8565 47.0459 60.0435 48.5831 57.7934C50.1203 55.5433 51.0476 52.9328 51.2743 50.2172C51.501 47.5015 51.0193 44.7735 49.8765 42.2996C48.7336 39.8257 46.9685 37.6906 44.7537 36.1029C42.1464 34.2386 39.9861 32.0219 38.3334 29.5139ZM39.0706 23.9014C36.5482 24.8675 33.7647 24.906 31.2165 24.0102C28.6684 23.1144 26.5213 21.3424 25.1584 19.0104C27.6808 18.0444 30.4642 18.006 33.0123 18.9018C35.5604 19.7977 37.7073 21.5697 39.0701 23.9016L39.0706 23.9014ZM24.3627 20.9926C25.2891 22.2701 26.4397 23.3689 27.7586 24.2353C26.8259 24.3367 25.9101 24.5582 25.0341 24.8943C24.8045 24.2951 24.6364 23.6741 24.5324 23.0409C24.4197 22.3639 24.3629 21.6789 24.3627 20.9926V20.9926ZM48.804 53.5034C47.6907 56.7045 45.454 59.3931 42.509 61.0705C39.564 62.7478 36.1105 63.3 32.7893 62.6247C29.4681 61.9493 26.5046 60.0921 24.4486 57.3978C22.3926 54.7035 21.3836 51.3548 21.6089 47.9731C21.8194 44.7281 21.4074 41.4728 20.3953 38.3825L20.2316 37.8745C19.5529 35.7688 19.6602 33.4885 20.5335 31.4558C21.4069 29.4231 22.9873 27.7758 24.982 26.8188C26.9766 25.8618 29.2505 25.66 31.3826 26.2508C33.5146 26.8415 35.3604 28.1848 36.5781 30.0319L36.8719 30.4774C38.6437 33.1651 40.953 35.5367 43.7355 37.5266C46.1901 39.2871 48.0099 41.7939 48.9233 44.6731C49.8368 47.5524 49.795 50.6498 48.8041 53.5034L48.804 53.5034Z" fill="#234cad"/>
<path d="M39.3646 56.7971C37.8043 57.5457 36.0571 57.8148 34.3439 57.5703C32.6306 57.3259 31.0283 56.5789 29.7396 55.4239C28.4509 54.2688 27.5337 52.7576 27.1039 51.0812C26.6741 49.4048 26.751 47.6387 27.325 46.006C27.899 44.3734 28.9442 42.9476 30.3284 41.909C31.7127 40.8704 33.3739 40.2656 35.1019 40.1711C36.8299 40.0766 38.5471 40.4967 40.0364 41.3781C41.5257 42.2596 42.7202 43.5628 43.4688 45.1231C44.4699 47.2159 44.6 49.6202 43.8306 51.8087C43.0612 53.9973 41.4551 55.7912 39.3646 56.7971V56.7971ZM32.5518 42.5968C31.3035 43.1957 30.2609 44.1513 29.5558 45.3427C28.8506 46.5341 28.5146 47.9079 28.5902 49.2903C28.6658 50.6727 29.1496 52.0017 29.9805 53.1091C30.8114 54.2165 31.952 55.0527 33.2581 55.5118C34.5642 55.971 35.9771 56.0326 37.3182 55.6887C38.6593 55.3449 39.8683 54.6111 40.7924 53.5801C41.7164 52.5492 42.314 51.2673 42.5095 49.8968C42.7051 48.5262 42.4898 47.1284 41.8909 45.8801C41.0863 44.2078 39.6511 42.9229 37.9003 42.3074C36.1494 41.6918 34.2259 41.7959 32.5518 42.5968V42.5968Z" fill="#234cad"/>
<path d="M87.4548 42.5629C87.0611 42.1482 82.1825 37.1187 75.8926 37.0023C72.4958 36.9349 69.3301 38.3341 66.5104 41.1468C61.1471 46.4956 60.857 51.6166 60.6011 56.1346C60.4011 59.6701 60.2283 62.7229 57.6812 65.3571C57.5489 65.4944 57.4725 65.6759 57.4668 65.8664C57.4602 66.4473 57.5867 67.0219 57.8365 67.5464L51.8987 73.4837C50.6173 74.7647 49.2427 74.6798 47.1646 74.5499C46.5608 74.5123 45.9369 74.4738 45.2466 74.4624C44.4182 74.4232 43.5976 74.6365 42.8931 75.074C42.1887 75.5115 41.6337 76.1525 41.3016 76.9124C40.9862 77.6961 40.9162 78.5572 41.101 79.3816C41.2857 80.2059 41.7165 80.9548 42.3363 81.5289C42.9026 82.1316 43.5988 82.5972 44.3721 82.8905C45.1453 83.1837 45.9753 83.2968 46.7988 83.2211C46.7231 84.0447 46.8362 84.8746 47.1295 85.6479C47.4227 86.4211 47.8884 87.1174 48.4911 87.6836C48.891 88.1007 49.3696 88.4345 49.8992 88.6656C50.4288 88.8968 50.999 89.0209 51.5767 89.0307C52.1029 89.0306 52.6237 88.9245 53.108 88.7188C53.8682 88.3871 54.5096 87.8321 54.9472 87.1275C55.3847 86.4228 55.5978 85.6019 55.558 84.7734C55.5479 84.0834 55.509 83.4609 55.4705 82.8558C55.3392 80.7764 55.2557 79.4026 56.5362 78.1212L62.4714 72.1821C62.9699 72.4192 63.5137 72.5457 64.0656 72.5531H64.1531C64.3438 72.5475 64.5256 72.4709 64.6628 72.3383C67.2966 69.7912 70.3503 69.6184 73.8849 69.418C78.4029 69.1625 83.5239 68.8724 88.8723 63.5091C91.6854 60.689 93.0797 57.532 93.0167 54.1269C92.8995 47.8353 87.8691 42.9549 87.4548 42.5629V42.5629ZM55.4517 77.0379C53.682 78.8072 53.8014 80.7269 53.9401 82.9499C53.9764 83.5357 54.0141 84.1416 54.0237 84.7957C54.0552 85.3184 53.9274 85.8383 53.6571 86.2868C53.3868 86.7352 52.9868 87.0911 52.5099 87.3074C52.0067 87.5048 51.455 87.5429 50.9295 87.4164C50.404 87.2899 49.93 87.0051 49.5717 86.6004C49.0188 86.0958 48.6235 85.4423 48.4333 84.7184C48.243 83.9945 48.266 83.231 48.4994 82.5198C48.5572 82.38 48.5723 82.2261 48.5427 82.0776C48.5132 81.9292 48.4403 81.7928 48.3333 81.6858C48.2262 81.5788 48.0899 81.5059 47.9414 81.4763C47.793 81.4467 47.6391 81.4618 47.4992 81.5197C46.7881 81.7524 46.0249 81.775 45.3012 81.5848C44.5775 81.3946 43.924 80.9997 43.4191 80.4474C43.0143 80.0891 42.7293 79.615 42.6029 79.0894C42.4764 78.5637 42.5145 78.0119 42.7121 77.5087C42.9254 77.0296 43.2805 76.6276 43.7297 76.357C44.1788 76.0863 44.7002 75.9601 45.2234 75.9954C45.8796 76.005 46.4838 76.0426 47.0696 76.0789C49.2939 76.2176 51.2119 76.3366 52.9811 74.5674L58.7863 68.7613C59.2833 69.1543 59.8711 69.416 60.4956 69.5226C60.6019 70.1473 60.8633 70.7354 61.256 71.2328L55.4517 77.0379ZM87.7869 62.4254C82.8519 67.3744 78.2494 67.6352 73.7969 67.8872C70.216 68.0898 66.8276 68.2809 63.8438 71.0031C63.2751 70.9313 62.0614 70.5691 61.9446 68.7871C61.9322 68.6017 61.8529 68.4271 61.7212 68.2959C61.5896 68.1647 61.4148 68.0858 61.2293 68.074C59.4439 67.9568 59.0829 66.7366 59.0125 66.1748C61.7342 63.1911 61.9262 59.8026 62.1284 56.2213C62.3812 51.7697 62.6416 47.165 67.5901 42.2313C70.1027 39.7253 72.8729 38.4763 75.8541 38.5331C81.6203 38.6346 86.3055 43.5771 86.3541 43.6274C86.3659 43.6401 86.3786 43.6532 86.3917 43.665C86.4416 43.7114 91.3792 48.3751 91.4851 54.1536C91.5393 57.1278 90.2951 59.9116 87.7856 62.4263L87.7869 62.4254Z" fill="#234cad"/>
<path d="M69.2356 45.369C65.5772 49.2304 65.5352 54.5517 65.5352 54.7753C65.5352 54.9782 65.6158 55.1727 65.7592 55.3162C65.9026 55.4597 66.0971 55.5404 66.3 55.5405C66.5027 55.5405 66.6972 55.4601 66.8407 55.3169C66.9843 55.1737 67.0651 54.9794 67.0656 54.7766C67.0656 54.7276 67.1172 49.8298 70.3468 46.4204C70.4759 46.2713 70.5424 46.0781 70.5326 45.8812C70.5228 45.6842 70.4374 45.4987 70.2941 45.3631C70.1509 45.2276 69.9609 45.1526 69.7637 45.1537C69.5665 45.1548 69.3773 45.2319 69.2356 45.369V45.369Z" fill="#234cad"/>
<path d="M76.1866 41.8068C75.5067 41.6534 74.8011 41.6539 74.1214 41.8083C73.4417 41.9628 72.8051 42.2672 72.2583 42.6993C72.1132 42.8345 72.0263 43.0207 72.0157 43.2187C72.0052 43.4167 72.0718 43.6111 72.2017 43.7609C72.3316 43.9107 72.5145 44.0043 72.712 44.022C72.9095 44.0397 73.1062 43.98 73.2606 43.8556C73.6252 43.5786 74.0464 43.3853 74.4942 43.2895C74.942 43.1937 75.4054 43.1977 75.8515 43.3013C76.0496 43.3456 76.2573 43.3093 76.4287 43.2005C76.6002 43.0916 76.7213 42.9192 76.7656 42.721C76.8099 42.5228 76.7736 42.3151 76.6648 42.1437C76.5559 41.9723 76.3834 41.8511 76.1853 41.8068H76.1866Z" fill="#234cad"/>
</svg>

<svg width="60" height="60" viewBox="0 0 100 100" fill="none" xmlns="http://www.w3.org/2000/svg">
  <rect x="1" y="1" width="98" height="98" rx="14" stroke="#234cad" stroke-width="2"/>
  <path d="M38.33 29.51l-.29-.44a10.9 10.9 0 00-2.5-2.67c1.78-.08 3.52-.51 5.12-1.28a.88.88 0 00.41-1.17 13.14 13.14 0 00-16.27-6.67c.11-.5.25-1.02.42-1.56l-1.67-.52c-1.68 5.33-.73 8.92-.1 10.45a10.9 10.9 0 00-4.88 12.76l.16.5a23.77 23.77 0 011.13 8.94A15.78 15.78 0 0042.4 63.11l.11-.05a15.75 15.75 0 002.25-26.96 25.1 25.1 0 01-6.42-6.59zm.74-5.6A11.4 11.4 0 0125.16 19a11.4 11.4 0 0113.91 4.9zm-14.7-2.92a13.04 13.04 0 003.39 3.25c-.93.1-1.85.32-2.73.65-.23-.6-.4-1.22-.5-1.85a12.5 12.5 0 01-.17-2.05zM48.8 53.5a14 14 0 01-27.2-5.53c.22-3.24-.2-6.5-1.2-9.59l-.17-.5a9.15 9.15 0 0116.35-7.85l.3.45a26.87 26.87 0 006.86 7.05A14 14 0 0148.8 53.5z" fill="#234cad"/>
  <path d="M39.36 56.8a8.75 8.75 0 11-7.56-15.78 8.75 8.75 0 017.56 15.78zm-6.8-14.2a7 7 0 106.05 12.62 7 7 0 00-6.06-12.62zM87.45 42.56c-.39-.41-5.27-5.44-11.56-5.56-3.4-.07-6.56 1.33-9.38 4.15-5.36 5.35-5.65 10.47-5.9 14.98-.2 3.54-.38 6.6-2.93 9.23a.77.77 0 00-.21.5c-.01.59.12 1.16.37 1.69l-5.94 5.93c-1.28 1.28-2.66 1.2-4.74 1.07-.6-.04-1.22-.08-1.91-.09a4.1 4.1 0 00-3.95 2.45 4.17 4.17 0 001.04 4.62 5.44 5.44 0 004.46 1.7 5.44 5.44 0 001.7 4.45 4.37 4.37 0 003.08 1.35 3.92 3.92 0 003.37-1.9c.43-.7.65-1.53.6-2.36 0-.69-.04-1.3-.08-1.91-.13-2.08-.21-3.46 1.07-4.74l5.93-5.94c.5.24 1.04.37 1.6.37h.08c.2 0 .38-.08.51-.21 2.64-2.55 5.69-2.72 9.22-2.92 4.52-.26 9.64-.55 15-5.91 2.8-2.82 4.2-5.98 4.14-9.38-.12-6.3-5.15-11.18-5.57-11.57zm-32 34.48c-1.77 1.77-1.65 3.69-1.51 5.91.04.59.07 1.2.08 1.85a2.59 2.59 0 01-1.51 2.5 2.64 2.64 0 01-2.94-.7 3.88 3.88 0 01-1.07-4.08.77.77 0 00-1-1 3.89 3.89 0 01-4.08-1.07 2.64 2.64 0 01-.7-2.94 2.56 2.56 0 012.5-1.51c.66 0 1.26.04 1.85.08 2.22.14 4.14.26 5.91-1.51l5.8-5.8c.5.38 1.1.65 1.72.75.1.63.36 1.22.76 1.71l-5.8 5.8zM87.8 62.43c-4.94 4.94-9.54 5.2-14 5.46-3.57.2-6.96.4-9.95 3.11-.56-.07-1.78-.43-1.9-2.21a.77.77 0 00-.71-.72c-1.79-.11-2.15-1.33-2.22-1.9 2.72-2.98 2.92-6.37 3.12-9.95.25-4.45.51-9.05 5.46-13.99 2.51-2.5 5.28-3.75 8.26-3.7 5.77.1 10.46 5.05 10.5 5.1a.6.6 0 00.04.03c.05.05 4.99 4.72 5.1 10.5.05 2.97-1.2 5.75-3.7 8.27z" fill="#234cad"/>
  <path d="M69.24 45.37c-3.66 3.86-3.7 9.18-3.7 9.4a.77.77 0 001.53 0c0-.04.05-4.94 3.28-8.35a.77.77 0 00-1.11-1.05zM76.19 41.8a4.68 4.68 0 00-3.93.9.77.77 0 001 1.16 3.12 3.12 0 012.6-.56.77.77 0 10.33-1.5z" fill="#234cad"/>
</svg>
